app/svgs/icon-sdl.svg

<?xml version="1.0" encoding="UTF-8" standalone="no"?>
<svg width="20px" height="20px" viewBox="0 0 20 20" version="1.1" xmlns="http://www.w3.org/2000/svg" xmlns:xlink="http://www.w3.org/1999/xlink">
    
     
    <defs></defs>
    <g id="Page-1" stroke="none" stroke-width="1" fill="none" fill-rule="evenodd">
        <g id="Icons" transform="translate(-454.000000, -557.000000)">
            <g id="icon-sdl" transform="translate(454.000000, 557.000000)">
                <path d="M8.0001,7.5125 L18.0001,11.5135 L20.0001,10.2765 L10.2361,6.3945 L8.0001,7.5125 Z M9.99999993e-05,9.7235 L9.7641,13.6055 L12.0001,12.4875 L2.0001,8.4875 L9.99999993e-05,9.7235 Z" id="Fill-2" fill="#7EBC79"></path>
                <path d="M9.9999,0.0002 L-9.99999993e-05,4.0002 L-9.99999993e-05,10.0002 L-9.99999993e-05,16.0002 L9.9999,20.0002 L19.9999,16.0002 L19.9999,4.0002 L9.9999,0.0002 Z M1.9999,14.6462 L1.9999,10.0002 L1.9999,5.3542 L9.9999,2.1542 L17.9999,5.3542 L17.9999,10.0002 L17.9999,14.6462 L9.9999,17.8462 L1.9999,14.6462 Z" id="Fill-1" fill="#394E60"></path>
            </g>
        </g>
    </g>
</svg>

<svg width="20" height="20" viewBox="0 0 20 20" xmlns="http://www.w3.org/2000/svg"><g fill="none" fill-rule="evenodd"><path d="M8 7.513l10 4 2-1.236-9.764-3.882L8 7.513zm-8 2.21l9.764 3.882L12 12.488l-10-4-2 1.236z" fill="#7EBC79"/><path d="M10 0L0 4v12l10 4 10-4V4L10 0zM2 14.646V5.354l8-3.2 8 3.2v9.292l-8 3.2-8-3.2z" fill="#394E60"/></g></svg>
